packages/brickdoc-design-icons/assets/basic/add-group.svg

<svg width="1em" height="1em" viewBox="0 0 24 24" fill="none" xmlns="http://www.w3.org/2000/svg">
<path fill-rule="evenodd" clip-rule="evenodd" d="M4.33333 4C4.14924 4 4 4.14924 4 4.33333V17.6667C4 17.8508 4.14924 18 4.33333 18H6.5V20H4.33333C3.04467 20 2 18.9553 2 17.6667V4.33333C2 3.04467 3.04467 2 4.33333 2H17.6667C18.9553 2 20 3.04467 20 4.33333V7H18V4.33333C18 4.14924 17.8508 4 17.6667 4H4.33333Z" fill="currentColor"/>
<path fill-rule="evenodd" clip-rule="evenodd" d="M8.16667 8C8.07462 8 8 8.07462 8 8.16667V19.8333C8 19.9254 8.07462 20 8.16667 20H19.8333C19.9254 20 20 19.9254 20 19.8333V8.16667C20 8.07462 19.9254 8 19.8333 8H8.16667ZM6 8.16667C6 6.97005 6.97005 6 8.16667 6H19.8333C21.03 6 22 6.97005 22 8.16667V19.8333C22 21.03 21.03 22 19.8333 22H8.16667C6.97005 22 6 21.03 6 19.8333V8.16667Z" fill="currentColor"/>
<path fill-rule="evenodd" clip-rule="evenodd" d="M14 10C14.5523 10 15 10.4477 15 11V17C15 17.5523 14.5523 18 14 18C13.4477 18 13 17.5523 13 17V11C13 10.4477 13.4477 10 14 10Z" fill="currentColor"/>
<path fill-rule="evenodd" clip-rule="evenodd" d="M10 14C10 13.4477 10.4477 13 11 13H17C17.5523 13 18 13.4477 18 14C18 14.5523 17.5523 15 17 15H11C10.4477 15 10 14.5523 10 14Z" fill="currentColor"/>
</svg>

<svg  viewBox="0 0 24 24" width="1em" height="1em" fill="none" xmlns="http://www.w3.org/2000/svg"><path fill-rule="evenodd" clip-rule="evenodd" d="M4.333 4A.333.333 0 0 0 4 4.333v13.334c0 .184.15.333.333.333H6.5v2H4.333A2.333 2.333 0 0 1 2 17.667V4.333A2.333 2.333 0 0 1 4.333 2h13.334A2.333 2.333 0 0 1 20 4.333V7h-2V4.333A.333.333 0 0 0 17.667 4H4.333Z" fill="#34313c"/><path fill-rule="evenodd" clip-rule="evenodd" d="M8.167 8A.167.167 0 0 0 8 8.167v11.666c0 .092.075.167.167.167h11.666a.167.167 0 0 0 .167-.167V8.167A.167.167 0 0 0 19.833 8H8.167ZM6 8.167C6 6.97 6.97 6 8.167 6h11.666C21.03 6 22 6.97 22 8.167v11.666C22 21.03 21.03 22 19.833 22H8.167A2.167 2.167 0 0 1 6 19.833V8.167Z" fill="#34313c"/><path fill-rule="evenodd" clip-rule="evenodd" d="M14 10a1 1 0 0 1 1 1v6a1 1 0 1 1-2 0v-6a1 1 0 0 1 1-1Z" fill="#34313c"/><path fill-rule="evenodd" clip-rule="evenodd" d="M10 14a1 1 0 0 1 1-1h6a1 1 0 1 1 0 2h-6a1 1 0 0 1-1-1Z" fill="#34313c"/></svg>
